assets/svg/tools/e2b.svg

<svg xmlns="http://www.w3.org/2000/svg" width="24" height="24"><g fill="#000" fill-rule="nonzero"><path d="M12 2C6.48 2 2 6.48 2 12s4.48 10 10 10 10-4.48 10-10S17.52 2 12 2m0 18c-4.41 0-8-3.59-8-8s3.59-8 8-8 8 3.59 8 8-3.59 8-8 8"/><path d="M7 14h10v2H7zm0-3h10v2H7zm0-3h10v2H7z"/></g></svg>

<?xml version="1.0" encoding="UTF-8"?>
<svg width="24px" height="24px" viewBox="0 0 24 24" version="1.1" xmlns="http://www.w3.org/2000/svg" xmlns:xlink="http://www.w3.org/1999/xlink">
    <g stroke="none" stroke-width="1" fill="none" fill-rule="evenodd">
        <path d="M12,2 C6.48,2 2,6.48 2,12 C2,17.52 6.48,22 12,22 C17.52,22 22,17.52 22,12 C22,6.48 17.52,2 12,2 Z M12,20 C7.59,20 4,16.41 4,12 C4,7.59 7.59,4 12,4 C16.41,4 20,7.59 20,12 C20,16.41 16.41,20 12,20 Z" fill="#000000" fill-rule="nonzero"></path>
        <path d="M7,14 L17,14 L17,16 L7,16 L7,14 Z M7,11 L17,11 L17,13 L7,13 L7,11 Z M7,8 L17,8 L17,10 L7,10 L7,8 Z" fill="#000000" fill-rule="nonzero"></path>
    </g>
</svg>
